svgs/duotone/backward-fast.svg

<svg xmlns="http://www.w3.org/2000/svg" viewBox="0 0 512 512"><!-- Font Awesome Pro 6.0.0-alpha2 by @fontawesome - https://fontawesome.com License - https://fontawesome.com/license (Commercial License) --><defs><style>.fa-secondary{opacity:.4}</style></defs><path d="M0 415.966V96.031C0 78.359 14.326 64.032 31.999 64.032H31.999C49.673 64.032 64 78.36 64 96.034V415.969C64 433.641 49.674 447.968 32.001 447.968H32.001C14.327 447.968 0 433.64 0 415.966Z" class="fa-secondary"/><path d="M64 227.88L235.5 71.406C256.125 54.284 288 68.657 288 96.027V227.88L459.5 71.406C480.125 54.284 512 68.657 512 96.027V415.973C512 443.343 480.125 457.716 459.5 440.594L288 285.245V415.973C288 443.343 256.125 457.716 235.5 440.594L64 285.245V227.88Z" class="fa-primary"/></svg>

<svg xmlns="http://www.w3.org/2000/svg" viewBox="0 0 512 512"><!--! Font Awesome Pro 6.0.0-alpha3 by @fontawesome - https://fontawesome.com License - https://fontawesome.com/license (Commercial License) --><defs><style>.fa-secondary{opacity:.4}</style></defs><path class="fa-primary" d="M64 227.9l171.5-156.5C256.1 54.28 288 68.66 288 96.03v131.9l171.5-156.5C480.1 54.28 512 68.66 512 96.03v319.9c0 27.37-31.88 41.74-52.5 24.62L288 285.2v130.7c0 27.37-31.88 41.74-52.5 24.62L64 285.2V227.9z"/><path class="fa-secondary" d="M0 415.1V96.03c0-17.67 14.33-31.1 31.1-31.1C49.67 64.03 64 78.36 64 96.03v319.9c0 17.67-14.33 31.1-31.1 31.1C14.33 447.1 0 433.6 0 415.1z"/></svg>
